X:5
T:The Black Part of the C--t
Z:Jack Campin <http://www.campin.me.uk/>
S:George Skene, NLS Adv. 5.2.21 (fiddle tunes part)
M:C|
L:1/8
Q:1/2=112
K:A Mixolydian
c>BAe       eB/B/ Be|c>BAe       fd/d/ df|eA/A/ Ae    eB/B/ Be|ee````fd  Te2d2:|
c/A/A c/A/A B>B```Be|c/A/A c/A/A f>e```df|c/A/A c/A/A B>B```Be|de/e/ f>d Te2d2:|
